images/icon-phone.svg

<?xml version="1.0" encoding="UTF-8" standalone="no"?>
<svg width="11px" height="11px" viewBox="0 0 11 11" version="1.1" xmlns="http://www.w3.org/2000/svg" xmlns:xlink="http://www.w3.org/1999/xlink">
    <!-- Generator: Sketch 3.8.3 (29802) - http://www.bohemiancoding.com/sketch -->
    <title>icon-phone</title>
    <desc>Created with Sketch.</desc>
    <defs></defs>
    <g id="Symbols" stroke="none" stroke-width="1" fill="none" fill-rule="evenodd">
        <g id="icon-phone" fill="#004152">
            <path d="M10.9156983,8.48962931 C10.8848793,8.39688793 10.6891552,8.26033621 10.3285259,8.08016379 C10.2308534,8.0234569 10.0916466,7.94626724 9.91156897,7.84840517 C9.7312069,7.7505431 9.56762931,7.66036207 9.42093103,7.57786207 C9.2740431,7.49555172 9.13625862,7.41561207 9.00757759,7.33851724 C8.987,7.32306034 8.92261207,7.27801724 8.81441379,7.2032931 C8.70621552,7.12866379 8.61489655,7.07328448 8.54007759,7.03715517 C8.46544828,7.00112069 8.39205172,6.98310345 8.31988793,6.98310345 C8.21690517,6.98310345 8.08822414,7.0565 7.93375,7.2032931 C7.77927586,7.35008621 7.63760345,7.50968103 7.50892241,7.68236207 C7.38014655,7.85494828 7.24368966,8.0145431 7.09955172,8.16133621 C6.95531897,8.30822414 6.83678448,8.38152586 6.74413793,8.38152586 C6.69776724,8.38152586 6.63973276,8.36862931 6.57022414,8.34302586 C6.50081034,8.31732759 6.44799138,8.29523276 6.41176724,8.27740517 C6.37582759,8.2592931 6.31409483,8.22335345 6.22647414,8.16911207 C6.13875862,8.11506034 6.08992241,8.08537931 6.07968103,8.08016379 C5.37406897,7.68871552 4.76887931,7.24056034 4.26411207,6.73588793 C3.75943966,6.23112069 3.31128448,5.62593103 2.91983621,4.92031897 C2.91471552,4.90998276 2.88503448,4.86105172 2.83098276,4.77352586 C2.77683621,4.68590517 2.74080172,4.62417241 2.72278448,4.5880431 C2.70476724,4.55200862 2.68286207,4.49918966 2.65716379,4.42968103 C2.63146552,4.36017241 2.61856897,4.30223276 2.61856897,4.25586207 C2.61856897,4.16321552 2.69196552,4.04468103 2.83875862,3.90044828 C2.98555172,3.75631034 3.14524138,3.61975862 3.31773276,3.49107759 C3.49031897,3.36239655 3.64991379,3.22072414 3.7967069,3.06625 C3.9435,2.91168103 4.01689655,2.783 4.01689655,2.68001724 C4.01689655,2.60794828 3.99887931,2.5344569 3.96284483,2.45982759 C3.92681034,2.38500862 3.87143103,2.29368966 3.7967069,2.18549138 C3.72198276,2.0772931 3.67693966,2.013 3.66148276,1.99232759 C3.5842931,1.86364655 3.5045431,1.72586207 3.4220431,1.57906897 C3.3395431,1.43227586 3.2494569,1.26869828 3.15159483,1.08843103 C3.05373276,0.908258621 2.9765431,0.769146552 2.91983621,0.671284483 C2.73956897,0.310844828 2.60311207,0.115025862 2.51037069,0.0842068966 C2.47433621,0.06875 2.42018966,0.0609741379 2.34812069,0.0609741379 C2.20900862,0.0609741379 2.02750862,0.0866724138 1.80343103,0.138258621 C1.57935345,0.18975 1.40297414,0.243801724 1.27419828,0.300508621 C1.01664655,0.408612069 0.743732759,0.722775862 0.455267241,1.24290517 C0.192594828,1.727 0.0612586207,2.20606897 0.0612586207,2.67992241 C0.0612586207,2.81884483 0.0702672414,2.95406897 0.0882844828,3.0855 C0.106301724,3.21683621 0.138543103,3.3649569 0.184913793,3.52976724 C0.231284483,3.69457759 0.268646552,3.817 0.296905172,3.89675 C0.325163793,3.9765 0.377982759,4.11940517 0.455267241,4.32546552 C0.532456897,4.53152586 0.578827586,4.65764655 0.594284483,4.70401724 C0.774551724,5.20878448 0.988293103,5.65940517 1.23550862,6.05606897 C1.64222414,6.71531034 2.19725,7.39655172 2.90030172,8.09960345 C3.60335345,8.80265517 4.2845,9.35768103 4.94383621,9.76458621 C5.34040517,10.0117069 5.79121552,10.2255431 6.29588793,10.4059052 C6.34225862,10.4212672 6.46847414,10.4676379 6.67443966,10.5450172 C6.88040517,10.6222069 7.02340517,10.6750259 7.10315517,10.7033793 C7.18290517,10.7317328 7.30532759,10.7690948 7.4700431,10.8154655 C7.6350431,10.8618362 7.78306897,10.8940776 7.91440517,10.9121897 C8.04574138,10.9300172 8.18096552,10.9392155 8.31998276,10.9392155 C8.79374138,10.9392155 9.27281034,10.8077845 9.757,10.5452069 C10.2770345,10.2567414 10.5911983,9.98373276 10.6993966,9.72608621 C10.7561983,9.5975 10.8101552,9.42102586 10.8616466,9.19694828 C10.9132328,8.97296552 10.938931,8.79146552 10.938931,8.65235345 C10.9390259,8.58 10.93125,8.52594828 10.9156983,8.48962931 L10.9156983,8.48962931 Z"></path>
        </g>
    </g>
</svg>

<svg height="11" viewBox="0 0 11 11" width="11" xmlns="http://www.w3.org/2000/svg"><path d="m10.9156983 8.48962931c-.030819-.09274138-.2265431-.2292931-.5871724-.40946552-.0976725-.05670689-.2368793-.13389655-.41695693-.23175862-.18036207-.09786207-.34393966-.1880431-.49063794-.2705431-.14688793-.08231035-.28467241-.16225-.41335344-.23934483-.02057759-.0154569-.08496552-.0605-.1931638-.13522414-.10819827-.07462931-.19951724-.13000862-.2743362-.16613793-.07462931-.03603448-.14802587-.05405172-.22018966-.05405172-.10298276 0-.23166379.07339655-.38613793.22018965-.15447414.14679311-.29614655.30638793-.42482759.47906897-.12877586.17258621-.26523275.33218103-.40937069.47897414-.14423275.14688793-.26276724.22018965-.35541379.22018965-.04637069 0-.10440517-.01289655-.17391379-.0385-.0694138-.02569827-.12223276-.0477931-.1584569-.06562069-.03593965-.01811207-.09767241-.05405172-.1852931-.1082931-.08771552-.05405173-.13655173-.08373276-.14679311-.08894828-.70561206-.39144827-1.31080172-.83960345-1.81556896-1.34427586-.50467241-.50476724-.95282759-1.1099569-1.34427586-1.81556896-.00512069-.01033621-.03480173-.05926725-.08885345-.14679311-.05414655-.08762069-.09018104-.14935345-.10819828-.18548276-.01801724-.03603448-.03992241-.08885344-.06562069-.15836207-.02569827-.06950862-.03859482-.12744827-.03859482-.17381896 0-.09264655.07339655-.21118104.22018965-.35541379.1467931-.14413794.30648276-.28068966.47897414-.40937069.17258621-.12868104.33218103-.27035345.47897414-.42482759.1467931-.15456897.22018965-.28325.22018965-.38623276 0-.07206896-.01801724-.14556034-.05405172-.22018965-.03603449-.07481897-.0914138-.16613793-.16613793-.27433621-.07472414-.10819828-.11976724-.17249138-.13522414-.19316379-.07718966-.12868104-.15693966-.26646552-.23943966-.41325862-.0825-.14679311-.1725862-.31037069-.27044827-.49063794-.09786207-.18017241-.17505173-.31928448-.23175862-.41714655-.18026724-.36043965-.31672414-.55625862-.40946552-.58707758-.03603448-.0154569-.09018103-.02323276-.16225-.02323276-.13911207 0-.32061207.02569827-.54468966.07728448-.22407758.05149138-.40045689.1055431-.52923275.16225-.25755173.10810345-.53046552.42226724-.81893104.94239655-.26267241.48409483-.39400862.9631638-.39400862 1.43701724 0 .13892242.00900862.27414656.02702586.40557759.01801724.13133621.05025862.2794569.09662931.44426724.04637069.16481035.08373276.28723276.11199138.36698276s.08107759.22265517.15836207.42871552c.07718966.20606034.12356035.33218103.13901724.37855172.18026724.50476724.39400862.95538793.64122414 1.35205173.40671552.65924137.96174138 1.34048275 1.6647931 2.04353448.70305173.70305172 1.38419828 1.25807758 2.04353449 1.66498276.39656896.24712069.84737931.46095689 1.35205172.64131899.04637069.015362.17258621.0617327.37855173.139112.20596551.0771897.34896551.1300087.42871551.1583621.07975.0283535.20217242.0657155.36688793.1120862.165.0463707.31302587.0786121.44436207.0967242.13133621.0178275.26656035.0270258.40557759.0270258.47375862 0 .95282758-.131431 1.43701724-.3940086.5200345-.2884655.8341983-.56147414.9423966-.81912069.0568017-.12858621.1107586-.30506035.16225-.52913793.0515862-.22398276.0772844-.40548276.0772844-.54459483.0000949-.07235345-.007681-.12640517-.0232327-.16272414z" fill="#004152" fill-rule="evenodd"/></svg>
